!!!!SEGMENT: pl-wumfc--n53446--001-014_moniuszko-stanislaw--hrabina-no-12a-neptun-na-wisle.krn
!!!cenid: 18xx:4101
!!!COM: Moniuszko, Stanisław
!!!COM-rismID: pe30008351
!!!CDT: 1819/05/05-1872/06/04
!!!CNT: Polish
!!!OPR: Hrabina
!!!OTL: No. 12a. Neptun na Wiśle
!!!OMV: 014
!!!PDT:
!!!AGN:
!!!YEC: Copyright 2022 Narodowy Instytut Fryderyka Chopina (https://polishscores.org)
!!!YEM: License CC-BY-4.0 (https://creativecommons.org/licenses/by/4.0)
!!!SMS-siglum: PL-Wumfc
!!!SMS-shelfmark: N53446
!!!SMS-shelfwork: 001-014 M
!!!SMS-variant:
!!!SMS-altvar:
!!!NIFC-rismSourceID: 1001165649
!!!NIFC-rismChildID: 1001165649
!!!NIFC-islandoraID: pl-wumfc:6884
!!!URL-pdf-islandora: https://repozytorium.nifc.pl/islandora/object/pl-wumfc%3A6884/datastream/PDF/view
!!!URL-scan: https://polish.musicsources.pl/pl/lokalizacje/galeria/druki-muzyczne/12579 @EN{Scan on Polish Music Sources Website} @PL{Skany w portalu Dziedzictwo Muzyki Polskiej w otwartym dostępie}
!!!IIIF:
!!!ONB-nifc:
!!!AIN: 1 piano
!!!key: A-
**kern	**kern	**text	**dynam
*part1	*part1	*	*
*staff2	*staff1	*	*
*I"[Piano.]	*I"[Piano.]	*	*
*Ipiano	*Ipiano	*	*
*ICklav	*ICklav	*	*
*clefF4	*clefG2	*	*
*k[b-e-a-d-]	*k[b-e-a-d-]	*	*
*A-:	*A-:	*	*
*M4/4	*M4/4	*	*
*met(c)	*met(c)	*	*
=1	=1	=1	=1
*clefG2	*	*	*
!!LO:TX:B:a:t=Moderato.
!	!LO:TX:t=P:problem:cały tekst zapisany ponad pięciolinią	!	!
(2a-/	(2aa-\	.	pp
4e-/)	4ee-\)	.	.
8.c/L	8.cc\L	.	.
16d-/Jk	16dd-\Jk	.	.
=2	=2	=2	=2
(2e-/	(2ee-\	.	.
4c/)	4cc\)	.	.
*clefF4	*	*	*
8.A-\L	8.a-/L	.	.
16B-\Jk	16b-/Jk	.	.
=3	=3	=3	=3
(4c\	(4cc\	.	.
4A-\	4a-/	.	.
4E-\)	4e-/)	.	.
8.F\L	8.f/L	.	.
16E-\Jk	16e-/Jk	.	.
=4	=4	=4	=4
*^	*	*	*
1E-	2EE-\	1e-	.	.
.	2DD-TT\	.	.	.
.	16qqCC/LL	.	.	.
.	16qqDD-/JJ	.	.	.
*v	*v	*	*	*
!!LO:LB:g=original
=5	=5	=5	=5
!!LO:TX:t=P:problem:trudność w synchronizacji partii obu rąk w t. 5-7
4C 4AA- 4CC\	4e- 4A-< 4E-</	.	sf
4r	4r	.	.
!	!LO:TX:t=P:problem:mixed beam	!	!
.	(>16qqCC</LL	.	.
.	16qqEE-</	.	.
.	16qqAA-</	.	.
.	16qqC</	.	.
.	16qqF</	.	.
.	16qqA-</	.	.
.	16qqc</	.	.
.	16qqe-\	.	.
.	16qqa-\	.	.
.	16qqcc\	.	.
.	16qqee-\JJ	.	.
2r	4aa-\)	.	.
.	4r	.	.
=6	=6	=6	=6
4BB- 4BBB-\	4f 4B-< 4A-</	.	.
4r	4r	.	.
!	!LO:TX:t=P:problem:mixed beam	!	!
.	(>16qqFF</LL	.	.
.	16qqAA-</	.	.
.	16qqBB-</	.	.
.	16qqD-</	.	.
.	16qqF</	.	.
.	16qqA-</	.	.
.	16qqB-</	.	.
.	16qqd-\	.	.
.	16qqf\	.	.
.	16qqa-\	.	.
.	16qqb-\	.	.
.	16qqdd-\JJ	.	.
2r	4ff\)	.	.
.	4r	.	.
!!LO:LB:g=original
=7	=7	=7	=7
4e- 4B- 4E-\	4e- 4d- 4B- 4G/	.	.
*	*rscale:8	*	*
*	*cue	*	*
!	!LO:TX:t=P:problem:mixed beam	!	!
4rBBB	64GG</L	.	.
.	64BB-</	.	.
.	64D-</	.	.
.	64E-</	.	.
.	64G</	.	.
.	64B-</	.	.
.	64d-\	.	.
.	64e-\	.	.
.	64g\	.	.
.	64b-\	.	.
.	64dd-\	.	.
.	64ee-\	.	.
.	64gg\	.	.
.	64bb-\	.	.
.	64ddd-\	.	.
.	64fff\	.	.
2r;	64eee-\	.	.
.	64ddd-\	.	.
.	64bb-\	.	.
.	64gg\	.	.
.	64ee-\	.	.
.	64dd-\	.	.
.	64b-\	.	.
.	64g\	.	.
.	64e-\	.	.
.	64g\	.	.
.	64b-\	.	.
.	64dd-\	.	.
.	64ff\	.	.
.	64ee-\	.	.
.	64dd-\	.	.
.	64b-\	.	.
.	64g\	.	.
.	64e-\	.	.
.	64d-\	.	.
.	64B-</	.	.
.	64G</	.	.
.	64B-</	.	.
.	64d-</	.	.
.	64f</	.	.
.	64e-</	.	.
.	64d-</	.	.
.	64B-</	.	.
.	64G</	.	.
.	64E-</	.	.
.	64D-</	.	.
.	64BB-</	.	.
.	64GG</J	.	.
*	*Xcue	*	*
*	*rscale:1	*	*
!!LO:LB:g=original
=8	=8	=8	=8
4EE-/	2.r	.	.
!LO:TX:i:a:t=rallent.	!	!	!
8.D-L 8.DD-/	.	.	.
16CJk 16CC/	.	.	.
8BB- 8BBB-/	.	.	.
8r	.	.	.
8EE-/	4r;	.	.
8r;	.	.	.
=9	=9	=9	=9
1r	2ee- 2cc 2a-\	Cześć,	ppp
.	8.b-L 8.g 8.e-/	Nep-	.
.	16ee-K 16cc 16a-/	-tu-	.
.	8.ee- 8.cc 8.a-/	-no-	.
.	16b-Jk 16g 16e-/	-wi	.
=10	=10	=10	=10
1r	2.b- 2.g 2.e-;/	cześć!	.
.	4r	.	.
=11	=11	=11	=11
2E- 2AA-/	2a- 2c 2A-/	.	p
8.FL 8.D-/	8.fL 8.d- 8.A-/	.	.
16E-K 16AA-/	16a-K 16c 16A-/	.	.
8.E- 8.AA-/	8.a- 8.c 8.A-/	.	.
16GJk 16E-/	16e-Jk 16B-/	.	.
!!LO:LB:g=original
=12	=12	=12	=12
2.G 2.E-;\	2.e- 2.B-;/	.	.
4r	4r	.	.
=13	=13	=13	=13
1r	2ee- 2cc 2a-\	.	ppp
.	8.b-L 8.g 8.e-/	.	.
.	16ee-K 16cc 16a-/	.	.
.	8.ee- 8.cc 8.a-/	.	.
.	16b-Jk 16g 16e-/	.	.
=14	=14	=14	=14
1r	2.b- 2.g 2.e-;/	.	.
.	4r	.	.
=15	=15	=15	=15
2E- 2AA-/	2a- 2c 2A-/	.	p
8.FL 8.D-/	8.fL 8.d- 8.A-/	.	.
16E-K 16AA-/	16a-K 16c 16A-/	.	.
8.E- 8.AA-/	8.a- 8.c 8.A-/	.	.
16GJk 16E-/	16e-Jk 16B-/	.	.
=16	=16	=16	=16
1G 1E-;	1e- 1B-;	.	.
!!LO:PB:g=original
=17	=17	=17	=17
*Xtuplet	*	*	*
.	(16qqF/LL	.	.
.	16qqB-/JJ)	.	.
!LO:TUP:b:problem:klamra łukowa	!	!	!
12D-L 12DD-/	4f/	.	.
12F/	.	.	.
12B-/J	.	.	.
!LO:TUP:a:problem:klamra łukowa	!	!	!
12BB-\L	8.dd-L 8.f/	.	.
12F\	.	.	.
12A-\J	.	.	.
.	16ccJk 16e-/	.	.
(12EE-/L	[4b- [4d-/	.	.
12BB-/	.	.	.
12E-/J	.	.	.
12G\L	8.b-]L 8.d-/]	.	.
12B-\	.	.	.
12E-\J)	.	.	.
.	16ccJk 16e-/	.	.
=18	=18	=18	=18
*	*^	*	*
(12AA-\L	2.a-/	(4c\	.	.
12E-\	.	.	.	.
12A-\J	.	.	.	.
12c\L	.	2e-\)	.	.
12A-\	.	.	.	.
12E-\J	.	.	.	.
12AA-\L	.	.	.	.
12E-\	.	.	.	.
12A-\J	.	.	.	.
12c\L	8cc\L	4ryy	.	.
12A-\	.	.	.	.
.	8dd-\J	.	.	.
12E-\J)	.	.	.	.
*	*v	*v	*	*
=19	=19	=19	=19
12AA-\L	(4.ee-\	.	.
12E-\	.	.	.
12G\J	.	.	.
12d-\L	.	.	.
12G\	.	.	.
.	8ddn\	.	.
12E-\J	.	.	.
.	8qff/	.	.
12AA-\L	8.ee-\L	.	.
12E-\	.	.	.
12A-\J	.	.	.
.	16dd\K	.	.
12c\L	8.ee-\	.	.
12A-\	.	.	.
12E-\J	.	.	.
.	16ff\Jk)	.	.
!!LO:LB:g=original
=20	=20	=20	=20
(12AA-\L	([4ee-\	.	.
12E-\)	.	.	.
12G\J	.	.	.
!LO:TUP:a:problem:klamra łukowa	!	!	!
12B-\L	8ee-\L_	.	.
12G\	.	.	.
.	16ee-\L]	.	.
12E-\J	.	.	.
!	!LO:N:vis=16	!	!
.	48dd-X\L	.	.
!	!LO:N:vis=16	!	!
.	48cc\	.	.
!	!LO:N:vis=16	!	!
.	48b-\JJJ	.	.
(12AA-\L	(4a-/)	.	.
12E-\)	.	.	.
12A-\J	.	.	.
!LO:TUP:a:problem:klamra łukowa	!	!	!
12c\L	[8a-/L	.	.
12A-\	.	.	.
.	16a-/L]	.	.
12C\J	.	.	.
!	!LO:N:vis=16	!	!
.	48g/L	.	.
!	!LO:N:vis=16	!	!
.	48f/	.	.
!	!LO:N:vis=16	!	!
.	48en/JJJ	.	.
=21	=21	=21	=21
!LO:TUP:a:problem:klamra łukowa	!	!	!
12D-\L	4f/)	.	.
12F\	.	.	.
12A-\J	.	.	.
!LO:TUP:a:problem:klamra łukowa	!	!	!
12BB-\L	8.dd-L 8.f/	.	.
12F\	.	.	.
12A-\J	.	.	.
.	16ccJk 16e-/	.	.
!LO:TUP:b:problem:klamra łukowa	!	!	!
12EE-/L	[4b- [4d-/	.	.
12BB-/	.	.	.
12E-/	.	.	.
12G/	8.b-]L 8.d-/]	.	.
12BB-/	.	.	.
12E-/J	.	.	.
.	16ccJk 16e-/	.	.
!!LO:LB:g=original
=22	=22	=22	=22
!LO:TUP:a:problem:klamra łukowa	!	!	!
12AA-\L	[2a- [2c/	.	.
12C\	.	.	.
12E-\	.	.	.
12A-\	.	.	.
12E-\	.	.	.
12C\J	.	.	.
!LO:TUP:a:problem:klamra łukowa	!	!	!
12AA-\L	8a-] 8c/]	.	.
12E-\	.	.	.
.	8r	.	.
12A-\	.	.	.
12c\	8.a-/L	.	.
12A-\	.	.	.
12E-\J	.	.	.
.	16cc/Jk	.	.
=23	=23	=23	=23
*	*^	*	*
!LO:TUP:a:problem:klamra łukowa	!	!	!	!
12BB-\L	(4..ee-/	2g 2e-\	.	.
12E-\	.	.	.	.
12G\	.	.	.	.
12B-\	.	.	.	.
12G\	.	.	.	.
12E-\J	.	.	.	.
.	16ff/	.	.	.
!LO:TUP:a:problem:klamra łukowa	!	!	!	!
12BB-\L	8.ee-/L	2a- 2f\	.	.
12F\	.	.	.	.
12A-\	.	.	.	.
.	16ddn/K	.	.	.
12B-\	8.b-/	.	.	.
12A-\	.	.	.	.
12F\J	.	.	.	.
.	16dd/Jk)	.	.	.
=24	=24	=24	=24	=24
!LO:TUP:a:problem:klamra łukowa	!	!	!	!
12EE-\L	2.ee-/	4g 4e-\	.	.
12E-\	.	.	.	.
12G\	.	.	.	.
12B-\	.	4b- 4g 4e-\	.	.
12G\	.	.	.	.
12E-\J	.	.	.	.
!LO:TUP:a:problem:klamra łukowa	!	!	!	!
12EE-\L	.	4b- 4g 4e-\	.	.
12BB-\	.	.	.	.
12E-\	.	.	.	.
12G\	8.ee-L 8.g\	4ryy	.	.
12B-\	.	.	.	.
12e-\J	.	.	.	.
.	16dd-XJk 16g\	.	.	.
!!LO:LB:g=original
=25	=25	=25	=25	=25
!LO:TUP:a:problem:klamra łukowa	!	!	!	!
12AA-\L	4cc/ 4a-/	4ryy	.	.
12E-\	.	.	.	.
12A-\	.	.	.	.
12c\	8ccL 8a- 8e-/	8ryy	.	.
12A-\	.	.	.	.
.	16r	16ryy	.	.
12E-\J	.	.	.	.
.	16cc/Jk	16ryy	.	.
!LO:TUP:a:problem:klamra łukowa	!	!	!	!
!	!	!	!	!LO:HP:b:t=cre-scen-do:ext2=ud
12BB-\L	(4dd-T/	2g 2e-\	.	<
12E-\	.	.	.	.
12G\	.	.	.	.
12B-\	8cc/L	.	.	.
12G\	.	.	.	.
.	8dd-/J	.	.	.
12E-\J	.	.	.	.
=26	=26	=26	=26	=26
!LO:TUP:a:problem:klamra łukowa	!	!	!	!
12C\L	4ee-/)	4a- 4e-\	.	.
12E-\	.	.	.	.
12A-\	.	.	.	.
12c\	8ee-:L 8a-: 8e-:/	4ryy	.	.
12A-\	.	.	.	.
.	16r	.	.	.
12E-\J	.	.	.	.
.	16ee-/Jk	.	.	.
!LO:TUP:a:problem:klamra łukowa	!	!	!	!
12D-\L	(4ggt/	2b-\	.	.
12E-\	.	.	.	.
12B-\	.	.	.	.
12e-\	8ff/L	.	.	[
12B-\	.	.	.	.
.	8gg/J)	.	.	.
12E-\J	.	.	.	.
=27	=27	=27	=27	=27
!LO:TUP:a:problem:klamra łukowa	!	!	!	!
12C\L	(4aa-/	4.a-\	.	f
12A-\	.	.	.	.
12e-\J	.	.	.	.
!LO:TUP:a:problem:klamra łukowa	!	!	!	!
12AA-\L	8gg/L	.	.	>
12E-\	.	.	.	.
.	8ff/J	8a-\	.	.
12c\J	.	.	.	.
!LO:TUP:a:problem:klamra łukowa	!	!	!	!
12GG\L	4.ee-/	4b-\	.	.
12D-\	.	.	.	.
12B-\J	.	.	.	.
!LO:TUP:a:problem:klamra łukowa	!	!	!	!
12EE-\L	.	4g\	.	]
12E-\	.	.	.	.
.	8dd-/)	.	.	.
12B-\J	.	.	.	.
!!LO:LB:g=original
=28	=28	=28	=28	=28
*^	*	*	*	*
(12AA-\L	4ryy	2cc/	4a-\	.	.
12E-\	.	.	.	.	.
12c\J	.	.	.	.	.
12B-\L	4ryy	.	8.g\L	.	.
12E-\	.	.	.	.	.
12A-\J)	.	.	.	.	.
.	.	.	16f\Jk	.	.
!LO:TUP:a:problem:klamra łukowa	!	!	!	!	!
!LO:N:vis=2	!	!	!	!	!
12AA-\L	2AA-/	4r	[2e-\	.	.
12E-\	.	.	.	.	.
12G\	.	.	.	.	.
12B-\	.	8.ee-/L	.	.	.
12G\	.	.	.	.	.
12E-\J	.	.	.	.	.
.	.	16dd-/Jk	.	.	.
=29	=29	=29	=29	=29	=29
!LO:TUP:a:problem:klamra łukowa	!	!	!	!	!
2AA-/	12AA-\L	4cc/	4e-\]	.	.
.	12E-\	.	.	.	.
.	12A-\	.	.	.	.
!	!	!	!	!	!LO:HP:b:t=cre-scen-do:ext2=ud
.	12c\	8.ccL 8.a- 8.e-/	4ryy	.	<
.	12A-\	.	.	.	.
.	12E-\J	.	.	.	.
.	.	16ccJk 16a- 16e-/	.	.	.
!LO:TUP:a:problem:klamra łukowa	!	!	!	!	!
2BB-/	12BB-\L	(4.dd-T/	2g 2e-\	.	.
.	12E-\	.	.	.	.
.	12G\	.	.	.	.
.	12B-\	.	.	.	.
.	12G\	.	.	.	.
.	.	16cc/LL	.	.	.
.	12E-\J	.	.	.	.
.	.	16dd-/JJ	.	.	.
=30	=30	=30	=30	=30	=30
!LO:TUP:a:problem:klamra łukowa	!	!	!	!	!
2C/	12C\L	4ee-/)	4a- 4e-\	.	.
.	12E-\	.	.	.	.
.	12A-\	.	.	.	.
.	12c\	8ee-:L 8cc: 8a-: 8e-:/	4ryy	.	.
.	12A-\	.	.	.	.
.	.	16r	.	.	.
.	12E-\J	.	.	.	.
.	.	16ee-/Jk	.	.	.
!LO:TUP:a:problem:klamra łukowa	!	!	!	!	!
2D-/	12D-\L	(4.ggt:/	4een: 4b-: 4g:\	.	.
.	12G\	.	.	.	.
.	12B-\	.	.	.	[[
.	12en\	.	4r	.	.
.	12G\	.	.	.	.
.	.	16ff#X/LL	.	.	.
.	12B-\J	.	.	.	.
.	.	16gg/JJ)	.	.	.
*v	*v	*	*	*	*
!!LO:PB:g=original
=31	=31	=31	=31	=31
!LO:TUP:a:problem:klamra łukowa	!	!	!	!
12Dn\L	(4bb-/	4ff 4b-\	.	f
12B-\	.	.	.	.
12f\J	.	.	.	.
!LO:TUP:a:problem:klamra łukowa	!LO:TUP:a:problem:klamra łukowa	!	!	!
12BB-\L	12aa-/L	4ddn 4a-\	.	.
12B-\	12gg/	.	.	.
12dn\J	12ff/J	.	.	.
!LO:TUP:a:problem:klamra łukowa	!	!	!	!
12E-\L	4ee-/	4g\	.	.
12B-\	.	.	.	.
12e-\J	.	.	.	.
*	*	*Xtuplet	*	*
!	!LO:TUP:a:problem:klamra łukowa	!	!	!
12EE-'/L	12dd-X/L	12f\L	.	.
(12E-/	12cc/	12e-\	.	.
12G/J)	12b-/J)	12d-\J	.	.
*	*	*tuplet	*	*
*	*v	*v	*	*
=32	=32	=32	=32
12AA-\L	2a- 2e- 2c/	.	>
12E-\	.	.	.
12A-\J	.	.	.
!LO:TUP:a:problem:klamra łukowa	!	!	!
12A-\L	.	.	.
12E-\	.	.	.
12AA-\J	.	.	.
(12AA-\L	4.a-/	.	.
12E-\	.	.	.
12A-\J	.	.	.
12A-\L	.	.	.
12E-\	.	.	.
.	8g/	.	]]
12AA-\J)	.	.	.
=33	=33	=33	=33
12D-\L	(4f 4d-/	.	p
12F\	.	.	.
12A-\J	.	.	.
!LO:TUP:a:problem:klamra łukowa	!	!	!
12BB-\L	8.dd-L 8.a- 8.f/	.	.
12F\	.	.	.
12B-\J	.	.	.
.	16ccJk 16a- 16f/	.	.
(12C\L	4b- 4g 4f/)	.	.
12G\	.	.	.
12B-\J	.	.	.
12c\L	(>4cc 4g 4en/	.	.
12B-\	.	.	.
12G\J)	.	.	.
!!LO:LB:g=original
=34	=34	=34	=34
12FF/L	1a- 1f)	.	.
12AA-/	.	.	.
12C/J	.	.	.
12F/L	.	.	.
12C/	.	.	.
12AA-/J	.	.	.
12FF\L	.	.	.
12c\	.	.	.
12A-\J	.	.	.
12F\L	.	.	.
12A-\	.	.	.
12c\J	.	.	.
=35	=35	=35	=35
!LO:TUP:a:problem:klamra łukowa	!	!	!
12D-\L	(<4f/	.	.
12F\	.	.	.
12B-\J	.	.	.
!LO:TUP:a:problem:klamra łukowa	!	!	!
12BB-\L	8.ffL 8.dd-\	.	.
12F\	.	.	.
12B-\J	.	.	.
.	16ee-Jk 16cc\	.	.
12EE-/	4dd- 4b-\	.	.
(12E-\L	.	.	.
12G\)	.	.	.
12d-\	8ccL 8e-/	.	.
(12G\	.	.	.
.	8b-J 8d-/)	.	.
12E-\J)	.	.	.
=36	=36	=36	=36
*^	*	*	*
!LO:TUP:a:problem:klamra łukowa	!	!	!	!
!LO:N:vis=2	!	!	!	!
12AA-\L	2AA-/	[2a- [2c/	.	.
12E-\	.	.	.	.
12A-\	.	.	.	.
12c\	.	.	.	.
12A-\	.	.	.	.
12E-\J	.	.	.	.
!LO:TUP:a:problem:klamra łukowa	!	!	!	!
12AA-\L	4ryy	8a-]L 8c/]	.	.
12E-\	.	.	.	.
.	.	16r	.	.
12A-\J	.	.	.	.
.	.	16fK 16d-/	.	.
!LO:TUP:a:problem:klamra łukowa	!	!	!	!
12D-\L	4D-/	8.f 8.d-/	.	.
12F\	.	.	.	.
12A-\J	.	.	.	.
.	.	16a-Jk 16c/	.	.
!!LO:LB:g=original
=37	=37	=37	=37	=37
*ped	*	*	*	*
!LO:TUP:a:problem:klamra łukowa	!	!	!	!
!LO:N:vis=2	!	!	!	!
12AA-\L	2AA-/	[2a- [2c/	.	.
12E-\	.	.	.	.
12A-\	.	.	.	.
12c\	.	.	.	.
12A-\	.	.	.	.
12E-\J	.	.	.	.
!LO:TUP:a:problem:klamra łukowa	!	!	!	!
12AA-\L	4ryy	8a-]L 8c/]	.	.
*Xped	*	*	*	*
12E-\	.	.	.	.
.	.	16r	.	.
12A-\J	.	.	.	.
.	.	16fK 16d-/	.	.
12D-\L	4D-/	8.f 8.d-/	.	.
12F\	.	.	.	.
12A-\J	.	.	.	.
.	.	16a-Jk 16c/	.	.
*v	*v	*	*	*
=38	=38	=38	=38
*	*^	*	*
*	*Xtuplet	*	*	*
4AA-/	12a-L 12c/	4ryy	.	.
.	12c/	.	.	.
.	12e-/J	.	.	.
*ped	*	*	*	*
4A- 4AA-\	12a-/L	4a-\	.	.
.	(<12c/	.	.	.
.	12e-/J	.	.	.
4E- 4EE-/	12a-/L	4a-\	.	.
.	12c/	.	.	.
.	12e-/J	.	.	.
4C 4CC/	12a-/L	4a-\	.	.
.	12c/	.	.	.
.	[12e-/J)	.	.	.
*	*v	*v	*	*
=39	=39	=39	=39
1AA- 1AAA-;	1a- 1e-] 1c;	.	.
*Xped	*	*	*
!!LO:LB:g=original
=40||	=40||	=40||	=40||
*k[]	*k[]	*	*
*tremolo	*tremolo	*	*
!!LO:TX:B:a:t=Allegro.
!!LO:TX:B:a:t=CHÓR.
16ELL 16C\	16G/LL	.	p
16F\	16A/	.	.
16E 16C\	16G/	.	.
16F\	16A/	.	.
16E 16C\	16G/	.	.
16F\	16A/	.	.
16E 16C\	16G/	.	.
16F\JJ	16A/JJ	.	.
16ELL 16C\	16G/LL	.	.
16F\	16A/	.	.
16E 16C\	16G/	.	.
16F\	16A/	.	.
16E 16C\	16G/	.	.
16F\	16A/	.	.
16E 16C\	16G/	.	.
16F\JJ	16A/JJ	.	.
=41	=41	=41	=41
16ELL 16C\	16cLL 16G/	.	.
16F\	16d/	.	.
16E 16C\	16c 16G/	.	.
16F\	16d/	.	.
16E 16C\	16c 16G/	.	.
16F\	16d/	.	.
16E 16C\	16c 16G/	.	.
16F\JJ	16d/JJ	.	.
!	!	!	!LO:HP:b:t=cre-scen-do:ext2=ud
16ELL 16C\	16cLL 16G/	.	<
16F\	16d/	.	.
16E 16C\	16c 16G/	.	.
16F\	16d/	.	.
16E 16C\	16c 16G/	.	.
16F\	16d/	.	.
16E 16C\	16c 16G/	.	.
16F\JJ	16d/JJ	.	.
*	*Xtremolo	*	*
=42	=42	=42	=42
16GLL 16E 16C\	16e/LL	.	.
16c\	16f/	.	.
16G 16E 16C\	16e/	.	.
16c\	16f/JJ	.	.
16G 16E 16C\	16g/LL	.	.
16c\	16f/	.	.
16G 16E 16C\	16g/	.	.
16c\JJ	16f/JJ	.	.
*Xtremolo	*	*	*
16GLL 16E 16C\	16g/LL	.	.
16c\	16a/	.	.
16G 16E 16C\	16g/	.	.
16c\JJ	16a/JJ	.	.
16GLL 16F 16C\	16b/LL	.	.
16B\	16g/	.	.
16G 16F 16C\	16a/	.	.
16B\JJ	16b/JJ	.	.
!!LO:LB:g=original
=43	=43	=43	=43
8C/	16ccLL 16e/	.	[[
.	16a/	.	.
16c\LL	16g 16e/	.	.
16B\JJ	16a/JJ	.	.
16c\LL	16gLL 16e/	.	.
16B\	16a/	.	.
16c\	16g 16e/	.	.
16B\JJ	16a/JJ	.	.
*tremolo	*tremolo	*	*
16c\LL	16gLL 16e/	.	.
16B\	16a/	.	.
16c\	16g 16e/	.	.
16B\	16a/	.	.
16c\	16g 16e/	.	.
16B\	16a/	.	.
16c\	16g 16e/	.	.
16B\JJ	16a/JJ	.	.
=44	=44	=44	=44
16eLL 16c\	16ccLL 16g/	.	.
16f\	16dd/	.	.
16e 16c\	16cc 16g/	.	.
16f\	16dd/	.	.
16e 16c\	16cc 16g/	.	.
16f\	16dd/	.	.
16e 16c\	16cc 16g/	.	.
16f\JJ	16dd/JJ	.	.
16eLL 16c\	16ccLL 16g/	.	.
16f\	16dd/	.	.
16e 16c\	16cc 16g/	.	.
16f\	16dd/	.	.
16e 16c\	16cc 16g/	.	.
16f\	16dd/	.	.
16e 16c\	16cc 16g/	.	.
16f\JJ	16dd/JJ	.	.
*Xtremolo	*Xtremolo	*	*
=45	=45	=45	=45
8e 8c\	16eeLL 16cc\	.	.
.	16ff\	.	.
16GLL 16E 16C\	16ee 16cc\	.	.
16c\JJ	16ff\JJ	.	.
16GLL 16E 16C\	16ggLL 16cc\	.	.
16c\	16ff\	.	.
16G 16E 16C\	16gg 16cc\	.	.
16c\JJ	16ffJJ	.	.
16GLL 16E 16C\	16ggLL 16dd\	.	.
16c\	16aa\	.	.
16G 16E 16C\	16gg 16dd\	.	.
16c\JJ	16aa\JJ	.	.
16GLL 16F 16C\	16bbLL 16dd\	.	.
16B\	16gg\	.	.
16G 16F 16C\	16aa\	.	.
16B\JJ	16bb\JJ	.	.
!!LO:PB:g=original
=46	=46	=46	=46
16GLL 16E 16C\	16cccLL 16ee\	.	f
16c\	16bb\	.	.
16G 16E 16C\	16aa\	.	.
16c\JJ	16gg\JJ	.	.
16GLL 16F 16C\	16aaLL 16ff\	.	.
16B\	16gg\	.	.
16G 16F 16C\	16aa\	.	.
16B\JJ	16bb\JJ	.	.
16GLL 16E 16C\	16cccLL 16ee\	.	.
16c\	16bb\	.	.
16G 16E 16C\	16aa\	.	.
16c\JJ	16gg\JJ	.	.
16GLL 16F 16C\	16aaLL 16ff\	.	.
16B\	16gg\	.	.
16G 16F 16C\	16aa\	.	.
16B\JJ	16bb\JJ	.	.
=47	=47	=47	=47
*tremolo	*	*	*
16GLL 16E 16C\	16cccLL 16ee\	.	.
16c\	16cc\	.	.
16G 16E 16C\	16dd\	.	.
16c\	16ee\JJ	.	.
16G 16E 16C\	16ff\LL	.	.
16c\	16ee\	.	.
16G 16E 16C\	16ff\	.	.
16c\JJ	16gg\JJ	.	.
*Xtremolo	*	*	*
8G 8E 8C\	16aa\LL	.	.
.	16gg\	.	.
8EL 8EE/	16aa\	.	.
.	16bb\JJ	.	.
8G 8GG/	16ccc\LL	.	.
.	16bb\	.	.
8EJ 8EE/	16ccc\	.	.
.	16ddd\JJ	.	.
!!LO:LB:g=original
=48	=48	=48	=48
8C 8CC/	16eee\LL	.	.
.	16ee\	.	.
16GLL 16E\	16ff\	.	.
16c\JJ	16gg\JJ	.	.
8GL 8E\	16aa\LL	.	.
.	16gg\	.	.
8cJ 8G 8E\	16aa\	.	.
.	16bb\JJ	.	.
8c 8G 8E\	16ccc\LL	.	.
.	16gg\	.	.
8EL 8EE/	16aa\	.	.
.	16bb\JJ	.	.
8C 8CC/	16ccc\LL	.	.
.	16bb\	.	.
8BBJ 8BBB/	16ccc\	.	.
.	16ddd\JJ	.	.
=49	=49	=49	=49
4..AA/ 4..AAA/	4..eee 4..ccc 4..aa 4..ee\	Bra-	f
16c 16A\	16cc 16a\	-wo	.
8.eL 8.c\	8.eeL 8.cc\	Nep-	.
16cK 16A\	16ccK 16a\	-tu-	.
8.e 8.c\	8.ee 8.cc\	-no-	.
16cJk 16A\	16ccJk 16a\	-wi	.
=50	=50	=50	=50
8AA\L	2.ee 2.cc 2.a\	bra-	.
8E\	.	.	.
8C\	.	.	.
8A\J	.	.	.
8E\L	.	.	.
8e\	.	.	.
8c\	4ee 4cc 4a\	-wo	.
8A\J	.	.	.
!!LO:LB:g=original
=51	=51	=51	=51
4..E 4..EE/	4..gg 4..ee 4..cc 4..g\	.	.
16e 16c\	16ee 16cc\	.	.
8.gL 8.e\	8.ggL 8.ee\	.	.
16eK 16c\	16eeK 16cc\	.	.
8.g 8.e\	8.gg 8.ee\	.	.
16eJk 16c\	16eeJk 16cc\	.	.
=52	=52	=52	=52
8C 8CC/	2.gg 2.ee 2.cc 2.g\	.	.
8G\L	.	.	.
8A\	.	.	.
8E\J	.	.	.
8G\L	.	.	.
8D\	.	.	.
8E\	8ee 8cc 8g\	.	.
8C\J	8r	.	.
=53	=53	=53	=53
*tremolo	*	*	*
16GG/LL	4.ff 4.dd 4.g^\	.	.
16G/	.	.	.
16GG/	.	.	.
16G/	.	.	.
16GG/	.	.	.
16G/	.	.	.
16GG/	8dd 8b 8g\	.	.
16G/JJ	.	.	.
*Xtremolo	*	*	*
8GG/L	8ddL 8b 8g\	.	.
8G 8GG/	16eeL 16cc\	.	.
.	16ffJJ 16dd\	.	.
8G 8GG/	8ggL 8ee\	.	.
8GJ 8GG/	8ddJ 8b 8g\	.	.
!!LO:LB:g=original
=54	=54	=54	=54
8C/	8ee 8cc 8g\	.	.
8GL 8GG/	8g/L	.	.
8A 8AA/	8a/	.	.
8EJ 8EE/	8e/J	.	.
8GL 8GG/	8g/L	.	.
8D 8DD/	8d/	.	.
8E 8EE/	8e/	.	.
8CJ 8CC/	8c/J	.	.
=55	=55	=55	=55
*tremolo	*	*	*
16GG/LL	4.ff^> 4.dd 4.g\	.	.
16G/	.	.	.
16GG/	.	.	.
16G/	.	.	.
16GG/	.	.	.
16G/	.	.	.
16GG/	8dd 8b 8g\	.	.
16G/JJ	.	.	.
*Xtremolo	*	*	*
8GG/L	8ddL 8b 8g\	.	.
8G 8GG/	16eeL 16cc\	.	.
.	16ffJJ 16dd\	.	.
8G 8GG/	8ggL 8ee\	.	.
8GJ 8GG/	8ddJ 8b 8g\	.	.
=56	=56	=56	=56
8CL 8CC/	4ee 4cc 4g\	.	.
8G/	.	.	.
8E/	4r	.	.
8G/J	.	.	.
*tremolo	*	*	*
16CC/LL	4.ff 4.a 4.f\	.	.
16C/	.	.	.
16CC/	.	.	.
16C/	.	.	.
16CC/	.	.	.
16C/	.	.	.
16CC/	8ff 8a 8f\	.	.
16C/JJ	.	.	.
*Xtremolo	*	*	*
=57	=57	=57	=57
8CL 8CC/	4ee 4g 4e/	.	.
8G/	.	.	.
8E/	4r	.	.
8G/J	.	.	.
*tremolo	*	*	*
16CC/LL	4.ff 4.a 4.f\	.	.
16C/	.	.	.
16CC/	.	.	.
16C/	.	.	.
16CC/	.	.	.
16C/	.	.	.
16CC/	8ff 8a 8f\	.	.
16C/JJ	.	.	.
*Xtremolo	*	*	*
!!LO:LB:g=original
=58	=58	=58	=58
16CC/LL	8ee 8g 8e/	.	.
16C/	.	.	.
16CC/	8r	.	.
16C/JJ	.	.	.
8FF/L	8ffL 8cc 8a 8f\	.	.
8FF/J	8ffJ 8cc 8a 8f\	.	.
16CC/LL	8ee 8cc 8g 8e/	.	.
16C/	.	.	.
16CC/	8r	.	.
16C/JJ	.	.	.
8FF/L	8ffL 8cc 8a 8f\	.	.
8FF/J	8ffJ 8cc 8a 8f\	.	.
=59	=59	=59	=59
8CL 8CC/	8ee 8cc 8g 8e/	.	.
16CC/L	8r	.	ff
16C/JJ	.	.	.
8CC/L	8ff 8cc 8a 8f\	.	.
16CC/L	8r	.	.
16C/JJ	.	.	.
8CC/L	8ee 8cc 8g 8e/	.	.
16CC/L	8r	.	.
16C/JJ	.	.	.
8CC/L	8ff 8cc 8a 8f\	.	.
16CC/L	8r	.	.
[16C/JJ	.	.	.
=60	=60	=60	=60
8C] 8CC/	8ee 8cc 8g 8e/	.	.
8r	8r	.	.
4r	4r	.	.
2r;	2r;	.	.
==	==	==	==
*-	*-	*-	*-
!!!system-decoration: {(p1)}
!!!RDF**kern: > = above
!!!RDF**kern: < = below
!!!ENC: Berenika Jozajtis
!!!END: 2022-08-22
!!!ENC: Kamil Watkowski
!!!END: 2022-09-28
